svg/icon/lsk.svg

<svg xmlns="http://www.w3.org/2000/svg" xmlns:xlink="http://www.w3.org/1999/xlink" width="32" height="32" viewBox="0 0 32 32">
  <defs>
    <linearGradient id="lsk-c" x1="50%" x2="50%" y1="0%" y2="100%">
      <stop offset="0%" stop-color="#FFF" stop-opacity=".5"/>
      <stop offset="100%" stop-opacity=".5"/>
    </linearGradient>
    <circle id="lsk-b" cx="16" cy="15" r="15"/>
    <filter id="lsk-a" width="111.7%" height="111.7%" x="-5.8%" y="-4.2%" filterUnits="objectBoundingBox">
      <feOffset dy=".5" in="SourceAlpha" result="shadowOffsetOuter1"/>
      <feGaussianBlur in="shadowOffsetOuter1" result="shadowBlurOuter1" stdDeviation=".5"/>
      <feComposite in="shadowBlurOuter1" in2="SourceAlpha" operator="out" result="shadowBlurOuter1"/>
      <feColorMatrix in="shadowBlurOuter1" values="0 0 0 0 0   0 0 0 0 0   0 0 0 0 0  0 0 0 0.199473505 0"/>
    </filter>
    <path id="lsk-e" d="M13.4160709,12.0999432 C13.5029525,12.0267737 13.5733636,12.0594228 13.5733636,12.1728389 L13.5733636,19.6518732 C13.5733636,19.7653579 13.4811978,19.8572133 13.3674831,19.8572133 L12.1512784,19.8572133 C12.0376323,19.8572133 11.9453979,19.7653579 11.9453979,19.6519417 C11.9454665,18.6625446 11.9456038,14.5310332 11.9469077,13.5417045 C11.9471136,13.4282884 12.0179364,13.2770896 12.1048866,13.2039885 L13.4160709,12.0999432 Z M10.9557646,18.4623791 C11.0518422,18.4623791 11.144008,18.5543714 11.144008,18.6677192 L11.144008,19.6519143 C11.144008,19.7653305 11.0518422,19.8572544 10.9381275,19.8572544 L5.66758673,19.8572544 L5.67060631,19.853969 C5.57377385,19.837884 5.5,19.7547212 5.5,19.6532832 L5.5,11.4914246 C5.5,11.3780769 5.56999937,11.2262621 5.65633193,11.1524766 L6.95832021,10.0396701 C7.04465277,9.96588454 7.11465214,9.99798605 7.11465214,10.1114022 L7.11465214,15.0629051 L7.11465214,18.2570389 C7.11465214,18.3942746 7.212514,18.4623791 7.32053264,18.4623791 L10.9557646,18.4623791 Z M19.3221031,15.9027804 C19.6178847,16.1122273 19.8373533,16.3537073 19.9805089,16.6272887 C20.1236645,16.9010071 20.1952423,17.2281139 20.1952423,17.608746 C20.1952423,18.3797297 19.9135977,18.9709723 19.3507205,19.3826107 C18.7876373,19.7942492 17.9126452,20 16.8630664,20 C15.7392333,20 14.8836626,19.7050632 14.3791181,19.4257322 C14.2797465,19.3706326 14.2508546,19.2414052 14.3102854,19.14469 L14.7818204,18.3771971 C14.8411826,18.2804819 14.9703383,18.2460533 15.0723178,18.2962931 C15.4729612,18.4932827 16.0606128,18.7151869 16.9203011,18.7151869 C17.9556056,18.7151869 18.5420218,18.4035491 18.5420218,17.7800681 C18.5420218,17.5802037 18.4847184,17.4136729 18.3702489,17.2804072 C18.2557107,17.1472783 18.0671928,17.0091529 17.8048324,16.8663731 C17.5423348,16.7236617 17.1773773,16.5619221 16.7098913,16.3810175 C15.7984583,16.0289277 15.1818462,15.6767694 14.8598491,15.3246111 C14.5377147,14.9725213 14.3766476,14.5156395 14.3766476,13.9541028 C14.3766476,13.2784654 14.6497824,12.7538214 15.1961892,12.3801709 C15.7424588,12.0066572 16.4854815,11.8198661 17.4254633,11.8198661 C18.2353285,11.8198661 19.0071059,11.9625091 19.7410013,12.2473158 C19.8469611,12.2884523 19.885598,12.4044694 19.828775,12.5026905 L19.3354853,13.3547835 C19.2785937,13.4530045 19.146487,13.4997536 19.0393605,13.4618341 C18.394131,13.233359 17.8369498,13.1189846 17.3682285,13.1189846 C16.4808149,13.1189846 16.0370738,13.3712791 16.0370738,13.8755944 C16.0370738,14.1230977 16.15271,14.3324077 16.3841883,14.5037298 C16.615598,14.6750519 17.1201425,14.910577 17.8978904,15.210442 C18.5514924,15.4626681 19.0261842,15.6934019 19.3221031,15.9027804 Z M27.4532436,12.1436943 L24.589789,15.1990182 C24.5090152,15.2788271 24.4932997,15.4207856 24.5548579,15.5161318 L27.2368632,19.674885 C27.2983529,19.7702313 27.2560787,19.857227 27.1423641,19.857227 L25.7847194,19.857227 C25.6710048,19.857227 25.5287413,19.7703682 25.4669772,19.6751588 L23.4245054,16.4210657 C23.3627412,16.3259248 23.2464187,16.3126461 23.1647528,16.3915651 L22.6059245,16.9309936 C22.5242586,17.0099126 22.4580337,17.1657658 22.4580337,17.2791135 L22.4580337,19.6422359 C22.4580337,19.7556521 22.3658678,19.8565426 22.2521532,19.857227 L21.0320367,19.857227 C20.918322,19.8580484 20.8261562,19.7667405 20.8261562,19.6533243 L20.8261562,11.4914657 C20.8261562,11.3780495 20.8961556,11.2263032 20.9824881,11.1525176 L22.284545,10.0397112 C22.370809,9.96592561 22.4408083,9.99802712 22.4408083,10.1114433 L22.4408083,15.0628778 C22.4408083,15.1763624 22.5087489,15.2061367 22.5925423,15.1294764 L25.5853585,12.1380133 C25.6692205,12.061353 25.8293269,11.9992718 25.9429729,11.9992718 L27.3937442,11.9992718 C27.5074588,11.9992718 27.534086,12.0638855 27.4532436,12.1436943 Z"/>
    <filter id="lsk-d" width="115.9%" height="135%" x="-8%" y="-12.5%" filterUnits="objectBoundingBox">
      <feOffset dy=".5" in="SourceAlpha" result="shadowOffsetOuter1"/>
      <feGaussianBlur in="shadowOffsetOuter1" result="shadowBlurOuter1" stdDeviation=".5"/>
      <feColorMatrix in="shadowBlurOuter1" values="0 0 0 0 0   0 0 0 0 0   0 0 0 0 0  0 0 0 0.204257246 0"/>
    </filter>
  </defs>
  <g fill="none" fill-rule="evenodd">
    <g fill-rule="nonzero">
      <use fill="#000" filter="url(#lsk-a)" xlink:href="#lsk-b"/>
      <use fill="#0288D1" fill-rule="evenodd" xlink:href="#lsk-b"/>
      <use fill="url(#lsk-c)" fill-rule="evenodd" style="mix-blend-mode:soft-light" xlink:href="#lsk-b"/>
      <circle cx="16" cy="15" r="14.5" stroke="#000" stroke-opacity=".097"/>
    </g>
    <use fill="#000" filter="url(#lsk-d)" xlink:href="#lsk-e"/>
    <use fill="#FFF" xlink:href="#lsk-e"/>
  </g>
</svg>

<svg xmlns="http://www.w3.org/2000/svg" xmlns:xlink="http://www.w3.org/1999/xlink" width="32" height="32"><defs><linearGradient id="c" x1="50%" x2="50%" y1="0%" y2="100%"><stop offset="0%" stop-color="#FFF" stop-opacity=".5"/><stop offset="100%" stop-opacity=".5"/></linearGradient><circle id="b" cx="16" cy="15" r="15"/><filter id="a" width="111.7%" height="111.7%" x="-5.8%" y="-4.2%" filterUnits="objectBoundingBox"><feOffset dy=".5" in="SourceAlpha" result="shadowOffsetOuter1"/><feGaussianBlur in="shadowOffsetOuter1" result="shadowBlurOuter1" stdDeviation=".5"/><feComposite in="shadowBlurOuter1" in2="SourceAlpha" operator="out" result="shadowBlurOuter1"/><feColorMatrix in="shadowBlurOuter1" values="0 0 0 0 0 0 0 0 0 0 0 0 0 0 0 0 0 0 0.199473505 0"/></filter><path id="e" d="M13.416 12.1c.087-.073.157-.04.157.073v7.479a.206.206 0 0 1-.206.205h-1.216a.206.206 0 0 1-.206-.205c0-.99 0-5.121.002-6.11 0-.114.07-.265.158-.338l1.311-1.104zm-2.46 6.362c.096 0 .188.092.188.206v.984a.206.206 0 0 1-.206.205h-5.27l.003-.003a.203.203 0 0 1-.171-.2V11.49c0-.113.07-.265.156-.339l1.302-1.112c.087-.074.157-.042.157.071v8.146c0 .137.098.205.206.205h3.635zm8.366-2.56c.296.21.515.452.659.725.143.274.214.601.214.982 0 .77-.281 1.362-.844 1.774-.563.411-1.438.617-2.488.617-1.124 0-1.98-.295-2.484-.574a.2.2 0 0 1-.069-.281l.472-.768a.227.227 0 0 1 .29-.08c.401.196.989.418 1.848.418 1.036 0 1.622-.311 1.622-.935a.74.74 0 0 0-.172-.5c-.114-.133-.303-.27-.565-.414a9.779 9.779 0 0 0-1.095-.485c-.912-.352-1.528-.704-1.85-1.056-.322-.352-.483-.81-.483-1.37 0-.677.273-1.201.82-1.575.545-.373 1.288-.56 2.228-.56.81 0 1.582.143 2.316.427a.173.173 0 0 1 .088.256l-.494.852a.255.255 0 0 1-.296.107c-.645-.229-1.202-.343-1.67-.343-.888 0-1.332.252-1.332.757 0 .247.116.456.347.628.232.171.736.407 1.514.706.653.253 1.128.483 1.424.693zm8.131-3.758l-2.863 3.055a.264.264 0 0 0-.035.317l2.682 4.159c.061.095.02.182-.095.182h-1.357a.433.433 0 0 1-.318-.182l-2.042-3.254a.163.163 0 0 0-.26-.03l-.56.54a.555.555 0 0 0-.147.348v2.363a.214.214 0 0 1-.206.215h-1.22a.204.204 0 0 1-.206-.204v-8.162c0-.113.07-.265.156-.338l1.303-1.113c.086-.074.156-.042.156.071v4.952c0 .113.068.143.152.066l2.992-2.991a.612.612 0 0 1 .358-.139h1.45c.114 0 .141.065.06.145z"/><filter id="d" width="115.9%" height="135%" x="-8%" y="-12.5%" filterUnits="objectBoundingBox"><feOffset dy=".5" in="SourceAlpha" result="shadowOffsetOuter1"/><feGaussianBlur in="shadowOffsetOuter1" result="shadowBlurOuter1" stdDeviation=".5"/><feColorMatrix in="shadowBlurOuter1" values="0 0 0 0 0 0 0 0 0 0 0 0 0 0 0 0 0 0 0.204257246 0"/></filter></defs><g fill="none" fill-rule="evenodd"><g fill-rule="nonzero"><use fill="#000" filter="url(#a)" xlink:href="#b"/><use fill="#0288D1" fill-rule="evenodd" xlink:href="#b"/><use fill="url(#c)" fill-rule="evenodd" style="mix-blend-mode:soft-light" xlink:href="#b"/><circle cx="16" cy="15" r="14.5" stroke="#000" stroke-opacity=".097"/></g><use fill="#000" filter="url(#d)" xlink:href="#e"/><use fill="#FFF" xlink:href="#e"/></g></svg>
